img/twitter-2.svg

<svg fill="none" height="24" viewBox="0 0 24 24" width="24" xmlns="http://www.w3.org/2000/svg"><path d="m9.89024 3.95602c-1.66834-2.06292-5.45504-1.94092-7.57145.82279-.38175.49843-.68046 1.14475-.90607 1.87871l-1.41272.58968 1.10626.68772c-.508832 2.79248-.213023 6.23768.49963 7.91518 2.18298 5.1384 9.24341 6.6003 13.34121 4.9837 5.9462-2.3461 9.0529-7.0948 9.0529-7.0948s-6.9411-.0738-14.10976-9.78298zm-4.88545 2.35001c-.08133.39917-.53062.64923-1.00362.55797-.473-.09102-.7906-.48874-.70926-.88791.08109-.39917.53061-.64923 1.00362-.55821.473.09126.79035.48874.70926.88815zm13.99601 9.34627c-.5824 1.5394-3.2779 1.9463-6.0196.9088-2.7419-1.0375-4.49254-3.1266-3.91012-4.6664.58242-1.5396 3.27762-1.94649 6.01982-.9087 2.7416 1.0375 4.4923 3.1268 3.9099 4.6663z" fill="#000"/></svg>

<svg width="24" height="24" viewBox="0 0 24 24" fill="none" xmlns="http://www.w3.org/2000/svg">
<path d="M9.89024 3.95602C8.2219 1.8931 4.4352 2.0151 2.31879 4.77881C1.93704 5.27724 1.63833 5.92356 1.41272 6.65752L0 7.2472L1.10626 7.93492C0.597428 10.7274 0.893237 14.1726 1.60589 15.8501C3.78887 20.9885 10.8493 22.4504 14.9471 20.8338C20.8933 18.4877 24 13.739 24 13.739C24 13.739 17.0589 13.6652 9.89024 3.95602ZM5.00479 6.30603C4.92346 6.7052 4.47417 6.95526 4.00117 6.864C3.52817 6.77298 3.21057 6.37526 3.29191 5.97609C3.373 5.57692 3.82252 5.32686 4.29553 5.41788C4.76853 5.50914 5.08588 5.90662 5.00479 6.30603ZM19.0008 15.6523C18.4184 17.1917 15.7229 17.5986 12.9812 16.5611C10.2393 15.5236 8.48866 13.4345 9.07108 11.8947C9.6535 10.3551 12.3487 9.94821 15.0909 10.986C17.8325 12.0235 19.5832 14.1128 19.0008 15.6523Z" fill="black"/>
</svg>
